X:2
T:Planxty Irwin
R:carolan
C:Turlough O'Carolan (1670-1738)
H:Also in D, #9
Z:id:hn-carolan-2
M:3/4
L:1/4
K:G
d | g2f | e>fg | ddc | B>AG | c2A | B>cd | F2G | A2d |
g2f | e>fg | ddc | B>AG | c2A | B/c/dd | G2A | G2 :|
|: d | g2g | g>fg | a>ba | afd | b2b | a>bg | f>ge |
d>ef | g2f | e>fg | ddc | B>AG | c2A | B/c/dd | G2A | G2 :|
<end>
<start>
